views/1/public/assets/portmone.svg

<svg fill="none" height="79" viewBox="0 0 79 79" width="79" xmlns="http://www.w3.org/2000/svg" xmlns:xlink="http://www.w3.org/1999/xlink"><filter id="a" color-interpolation-filters="sRGB" height="85" width="85" x="-3" y="-3"><feFlood flood-opacity="0" result="BackgroundImageFix"/><feBlend in="SourceGraphic" in2="BackgroundImageFix" mode="normal" result="shape"/><feGaussianBlur result="effect1_foregroundBlur_202_18" stdDeviation="15"/></filter><clipPath id="b"><path d="m0 0h79v79h-79z"/></clipPath><mask id="c" height="79" maskUnits="userSpaceOnUse" width="79" x="0" y="0"><path d="m79 0h-79v79h79z" fill="#fff"/></mask><g clip-path="url(#b)"><g mask="url(#c)"><path d="m39.5 79c21.8152 0 39.5-17.6848 39.5-39.5s-17.6848-39.5-39.5-39.5-39.5 17.6848-39.5 39.5 17.6848 39.5 39.5 39.5z" fill="#fff" fill-opacity=".01"/><g filter="url(#a)"><circle cx="39.5" cy="39.5" fill="#0e99fb" r="12.5"/></g><path d="m79 39.5c0-21.8152-17.6848-39.5-39.5-39.5s-39.5 17.6848-39.5 39.5 17.6848 39.5 39.5 39.5 39.5-17.6848 39.5-39.5z" fill="#fff" fill-opacity=".06"/><path clip-rule="evenodd" d="m35.1865 24c-1.0277 0-2.0133.4083-2.74 1.135s-1.135 1.7123-1.135 2.74v.875h-5.624c-1.4843 0-2.6875 1.2032-2.6875 2.6875v6.8465c-.0003.0183-.0003.0365 0 .0547v12.0988c0 1.4843 1.2032 2.6875 2.6875 2.6875h26.125c1.4843 0 2.6875-1.2032 2.6875-2.6875v-12.0899c.0006-.025.0006-.0499 0-.0749v-6.8352c0-1.4843-1.2032-2.6875-2.6875-2.6875h-5.626v-.875c0-1.0277-.4082-2.0133-1.1349-2.74s-1.7124-1.135-2.7401-1.135zm-9.1865 26.125v-9.3365c3.9789 1.87 8.3318 2.8431 12.749 2.8365 4.418.0066 8.7716-.9668 12.751-2.8374v9.3374zm12.7514-9.5c4.4528.007 8.833-1.0927 12.7486-3.1943v-5.6807h-6.8135-11.875-6.8115v5.6818c3.9151 2.1009 8.2946 3.2002 12.7467 3.1932zm4.4351-11.875v-.875c0-.2321-.0922-.4546-.2563-.6187-.164-.1641-.3866-.2563-.6187-.2563h-7.125c-.232 0-.4546.0922-.6187.2563s-.2563.3866-.2563.6187v.875zm-6.2187 7.125c-.8284 0-1.5.6716-1.5 1.5s.6716 1.5 1.5 1.5h3.5625c.8284 0 1.5-.6716 1.5-1.5s-.6716-1.5-1.5-1.5z" fill="#0e99fb" fill-rule="evenodd"/></g></g></svg>

<?xml version="1.0" encoding="UTF-8"?> <svg xmlns="http://www.w3.org/2000/svg" width="79" height="79" viewBox="0 0 79 79" fill="none"><g clip-path="url(#clip0_202_18)"><mask id="mask0_202_18" style="mask-type:luminance" maskUnits="userSpaceOnUse" x="0" y="0" width="79" height="79"><path d="M79 0H0V79H79V0Z" fill="white"></path></mask><g mask="url(#mask0_202_18)"><path d="M39.5 79C61.3152 79 79 61.3152 79 39.5C79 17.6848 61.3152 0 39.5 0C17.6848 0 0 17.6848 0 39.5C0 61.3152 17.6848 79 39.5 79Z" fill="white" fill-opacity="0.01"></path><g filter="url(#filter0_f_202_18)"><circle cx="39.5" cy="39.5" r="12.5" fill="#0E99FB"></circle></g><path d="M79 39.5C79 17.6848 61.3152 0 39.5 0C17.6848 0 0 17.6848 0 39.5C0 61.3152 17.6848 79 39.5 79C61.3152 79 79 61.3152 79 39.5Z" fill="white" fill-opacity="0.06"></path><path fill-rule="evenodd" clip-rule="evenodd" d="M35.1865 24C34.1588 24 33.1732 24.4083 32.4465 25.135C31.7198 25.8617 31.3115 26.8473 31.3115 27.875V28.75H25.6875C24.2032 28.75 23 29.9532 23 31.4375V38.284C22.9997 38.3023 22.9997 38.3205 23 38.3387V50.4375C23 51.9218 24.2032 53.125 25.6875 53.125H51.8125C53.2968 53.125 54.5 51.9218 54.5 50.4375V38.3476C54.5006 38.3226 54.5006 38.2977 54.5 38.2727V31.4375C54.5 29.9532 53.2968 28.75 51.8125 28.75H46.1865V27.875C46.1865 26.8473 45.7783 25.8617 45.0516 25.135C44.3249 24.4083 43.3392 24 42.3115 24H35.1865ZM26 50.125V40.7885C29.9789 42.6585 34.3318 43.6316 38.749 43.625C43.167 43.6316 47.5206 42.6582 51.5 40.7876V50.125H26ZM38.7514 40.625C43.2042 40.632 47.5844 39.5323 51.5 37.4307V31.75H44.6865H32.8115H26V37.4318C29.9151 39.5327 34.2946 40.632 38.7467 40.625H38.7514ZM43.1865 28.75V27.875C43.1865 27.6429 43.0943 27.4204 42.9302 27.2563C42.7662 27.0922 42.5436 27 42.3115 27H35.1865C34.9545 27 34.7319 27.0922 34.5678 27.2563C34.4037 27.4204 34.3115 27.6429 34.3115 27.875V28.75H43.1865ZM36.9678 35.875C36.1394 35.875 35.4678 36.5466 35.4678 37.375C35.4678 38.2034 36.1394 38.875 36.9678 38.875H40.5303C41.3587 38.875 42.0303 38.2034 42.0303 37.375C42.0303 36.5466 41.3587 35.875 40.5303 35.875H36.9678Z" fill="#0E99FB"></path></g></g><defs><filter id="filter0_f_202_18" x="-3" y="-3" width="85" height="85" color-interpolation-filters="sRGB"><feFlood flood-opacity="0" result="BackgroundImageFix"></feFlood><feBlend mode="normal" in="SourceGraphic" in2="BackgroundImageFix" result="shape"></feBlend><feGaussianBlur stdDeviation="15" result="effect1_foregroundBlur_202_18"></feGaussianBlur></filter><clipPath id="clip0_202_18"><rect width="79" height="79" fill="white"></rect></clipPath></defs></svg>
